Sources/FrostedUI/Resources/Icons.xcassets/pencil20.imageset/pencil-20.svg

<svg width="20" height="20" viewBox="0 0 20 20" fill="none" xmlns="http://www.w3.org/2000/svg" data-fui-icon="true">
  <path
    d="M14.6875 1C15.6467 1.00001 16.5668 1.38132 17.2451 2.05957L17.9404 2.75488C18.6187 3.43317 19 4.35324 19 5.3125C19 6.27173 18.6187 7.19184 17.9404 7.87012L7.78027 18.0303C7.66443 18.1461 7.51387 18.221 7.35156 18.2432L1.85156 18.9932C1.61935 19.0248 1.38545 18.946 1.21973 18.7803C1.05401 18.6145 0.975171 18.3807 1.00684 18.1484L1.75684 12.6484C1.77901 12.4861 1.85389 12.3356 1.96973 12.2197L12.1299 2.05957C12.8082 1.38127 13.7282 1.00001 14.6875 1ZM3.20898 13.1006L2.62598 17.373L6.89844 16.79L14.0645 9.625L10.375 5.93555L3.20898 13.1006ZM14.6875 2.5C14.1261 2.50001 13.5874 2.72312 13.1904 3.12012L11.4355 4.875L15.125 8.56445L16.8799 6.80957C17.2769 6.4126 17.5 5.8739 17.5 5.3125C17.5 4.75107 17.2769 4.21241 16.8799 3.81543L16.1846 3.12012C15.7876 2.72315 15.2489 2.50001 14.6875 2.5Z"
    fill="currentColor"
  />
</svg>

<svg xmlns="http://www.w3.org/2000/svg" width="20" height="20" fill="none" data-fui-icon="true" viewBox="0 0 20 20"><path fill="currentColor" d="M14.688 1c.959 0 1.879.381 2.557 1.06l.695.695a3.617 3.617 0 0 1 0 5.115L7.78 18.03a.75.75 0 0 1-.428.213l-5.5.75a.75.75 0 0 1-.845-.845l.75-5.5a.75.75 0 0 1 .213-.428L12.13 2.06A3.62 3.62 0 0 1 14.687 1M3.209 13.1l-.583 4.273 4.272-.583 7.167-7.165-3.69-3.69zM14.688 2.5c-.562 0-1.1.223-1.498.62l-1.755 1.755 3.69 3.69L16.88 6.81a2.117 2.117 0 0 0 0-2.995l-.695-.695a2.12 2.12 0 0 0-1.497-.62"/></svg>
